X:1
T:The Young and Single Sailor
M:3/4
L:1/8
K:G
 G3/2- A/2| BG d2 G3/2- A/2|
M:4/4
 BA-G EE z2 G|
M:3/4
 ABA-G B,C| DE D2 D3/2- C/2| B,D c2 BA|G/2-A/2 BA/2-F/2 D z D| GA/2-B/2c-A BG|\
D/2-F/2 A G2||
